svg/100/sharp/controller_gen.svg

<svg xmlns="http://www.w3.org/2000/svg" width="48" height="48" viewBox="0 -960 960 960"><path d="M479.882-269Q568-269 629.5-330.382q61.5-61.383 61.5-149.5Q691-568 629.493-629.5 567.985-691 480.118-691 392-691 330.5-629.493 269-567.985 269-480.118 269-392 330.382-330.5q61.383 61.5 149.5 61.5Zm-.077-22Q402-291 346.5-346.576T291-480.195Q291-558 346.576-613.5T480.195-669Q558-669 613.5-613.305q55.5 55.694 55.5 133.5Q669-402 613.305-346.5q-55.694 55.5-133.5 55.5ZM480-464l72-72-16-16-72 72 16 16ZM172-172v-616h616v616H172Zm22-22h572v-572H194v572Zm0-572v572-572Z"/></svg>

<svg xmlns="http://www.w3.org/2000/svg" width="48" height="48" viewBox="0 -960 960 960"><path d="M479.88-269q88.12 0 149.62-61.38t61.5-149.5q0-88.12-61.51-149.62-61.5-61.5-149.37-61.5-88.12 0-149.62 61.51-61.5 61.5-61.5 149.37 0 88.12 61.38 149.62t149.5 61.5Zm-.07-22Q402-291 346.5-346.58 291-402.15 291-480.19q0-77.81 55.58-133.31Q402.15-669 480.19-669q77.81 0 133.31 55.69 55.5 55.7 55.5 133.5 0 77.81-55.69 133.31-55.7 55.5-133.5 55.5Zm.19-173 72-72-16-16-72 72 16 16ZM172-172v-616h616v616H172Zm22-22h572v-572H194v572Zm0-572v572-572Z"/></svg>
